X: 783
T: the Maids of Tulla
R: reel
%S: s:2 b:16(8+8)
B: Francis O'Neill: "The Dance Music of Ireland" (1907) #783
Z: Frank Nordberg - http://www.musicaviva.com
F: http://www.musicaviva.com/abc/tunes/ireland/oneill-1001/0783/oneill-1001-0783-1.abc
M: C|
L: 1/8
K: A
"^A"\
[| e(A (3cBA) E(A (3cBA) | eA(ce f)edc | b(B (3dcB) g(B (3dcB) | d(efg) a(gaf) \
|| e(A (3cBA) E(A (3cBA) | e(AcA) fedc | d(efg) afe(c | df)ed (cA)(Aa) |]
[| aA (3AAA (EA)cA | aA (3AAA (fe)dc | bB (3BBB (FB)dB | bB (3BBB (de)fg \
|| aA (3AAA (EA)cA | aAA(g fed)c | d(efg) afe(c | df)ed (cA)(Aa) |]
